icons/mobile/24/svg/sun-fill-24.svg

<svg width="24" height="24" viewBox="0 0 24 24" fill="none" xmlns="http://www.w3.org/2000/svg">
<path d="M12 18.3623C12.4832 18.3623 12.875 18.7541 12.875 19.2373V21.125C12.8748 21.6081 12.4831 22 12 22C11.5169 22 11.1252 21.6081 11.125 21.125V19.2373C11.125 18.7541 11.5168 18.3623 12 18.3623Z" fill="black"/>
<path d="M6.26367 16.498C6.60536 16.1564 7.16024 16.1564 7.50195 16.498C7.84366 16.8398 7.84366 17.3946 7.50195 17.7363L6.16699 19.0713C5.82527 19.4128 5.27035 19.4129 4.92871 19.0713C4.58712 18.7296 4.58723 18.1747 4.92871 17.833L6.26367 16.498Z" fill="black"/>
<path d="M16.498 16.498C16.8398 16.1564 17.3946 16.1563 17.7363 16.498L19.0713 17.833C19.4128 18.1747 19.4129 18.7296 19.0713 19.0713C18.7297 19.4129 18.1747 19.4128 17.833 19.0713L16.498 17.7363C16.1563 17.3946 16.1563 16.8398 16.498 16.498Z" fill="black"/>
<path d="M12 7.5C14.481 7.5 16.5 9.519 16.5 12C16.5 14.481 14.481 16.5 12 16.5C9.519 16.5 7.5 14.481 7.5 12C7.5 9.519 9.519 7.5 12 7.5Z" fill="black"/>
<path d="M4.7627 11.125C5.24594 11.125 5.6377 11.5168 5.6377 12C5.6377 12.4832 5.24594 12.875 4.7627 12.875H2.875C2.39175 12.875 2 12.4832 2 12C2 11.5168 2.39175 11.125 2.875 11.125H4.7627Z" fill="black"/>
<path d="M21.125 11.125C21.6081 11.1251 22 11.5168 22 12C22 12.4832 21.6081 12.8749 21.125 12.875H19.2373C18.7541 12.875 18.3623 12.4832 18.3623 12C18.3623 11.5168 18.7541 11.125 19.2373 11.125H21.125Z" fill="black"/>
<path d="M4.92871 4.92871C5.27035 4.58707 5.82527 4.5872 6.16699 4.92871L7.50195 6.26367C7.84366 6.60538 7.84366 7.16024 7.50195 7.50195C7.16024 7.84362 6.60537 7.84365 6.26367 7.50195L4.92871 6.16699C4.58722 5.82528 4.58711 5.27036 4.92871 4.92871Z" fill="black"/>
<path d="M17.833 4.92871C18.1747 4.58721 18.7296 4.58709 19.0713 4.92871C19.4129 5.27036 19.4128 5.82528 19.0713 6.16699L17.7363 7.50195C17.3946 7.84365 16.8398 7.84362 16.498 7.50195C16.1564 7.16024 16.1563 6.60537 16.498 6.26367L17.833 4.92871Z" fill="black"/>
<path d="M12 2C12.4832 2 12.875 2.39175 12.875 2.875V4.7627C12.875 5.24594 12.4832 5.6377 12 5.6377C11.5168 5.6377 11.125 5.24594 11.125 4.7627V2.875C11.125 2.39175 11.5168 2 12 2Z" fill="black"/>
</svg>

<!-- This Source Code Form is subject to the terms of the Mozilla Public
   - License, v. 2.0. If a copy of the MPL was not distributed with this
   - file, You can obtain one at http://mozilla.org/MPL/2.0/. -->
<svg xmlns="http://www.w3.org/2000/svg" width="24" height="24" fill="none" viewBox="0 0 24 24">
    <path fill="#000" d="M12 18.362c.483 0 .875.392.875.875v1.888a.875.875 0 0 1-1.75 0v-1.888c0-.483.392-.875.875-.875m-5.736-1.864a.876.876 0 0 1 1.238 1.238l-1.335 1.335a.876.876 0 0 1-1.238-1.238zm10.234 0a.876.876 0 0 1 1.238 0l1.335 1.335a.876.876 0 0 1-1.238 1.238l-1.335-1.335a.876.876 0 0 1 0-1.238M12 7.5c2.481 0 4.5 2.019 4.5 4.5s-2.019 4.5-4.5 4.5A4.505 4.505 0 0 1 7.5 12c0-2.481 2.019-4.5 4.5-4.5m-7.237 3.625a.875.875 0 0 1 0 1.75H2.875a.875.875 0 0 1 0-1.75zm16.362 0a.875.875 0 0 1 0 1.75h-1.888a.875.875 0 0 1 0-1.75zM4.929 4.929a.876.876 0 0 1 1.238 0l1.335 1.335a.876.876 0 0 1-1.238 1.238L4.929 6.167a.876.876 0 0 1 0-1.238m12.904 0a.876.876 0 0 1 1.238 1.238l-1.335 1.335a.876.876 0 0 1-1.238-1.238zM12 2c.483 0 .875.392.875.875v1.888a.875.875 0 0 1-1.75 0V2.875c0-.483.392-.875.875-.875" />
</svg>
